src/assets/imgs/icons/wallet/ic_minting_Line.svg

<?xml version="1.0" encoding="UTF-8"?>
<svg width="24px" height="24px" viewBox="0 0 24 24" version="1.1" xmlns="http://www.w3.org/2000/svg" xmlns:xlink="http://www.w3.org/1999/xlink">
    <!-- Generator: Sketch 52.5 (67469) - http://www.bohemiancoding.com/sketch -->
    <title>ic_minting_Line</title>
    <desc>Created with Sketch.</desc>
    <g id="Export" stroke="none" stroke-width="1" fill="none" fill-rule="evenodd">
        <g id="ic_minting_Line" transform="translate(1.000000, 1.000000)" fill="#696B8A" fill-rule="nonzero">
            <path d="M1,19.5 C1,19.7483867 1.48303101,20.1290579 2.4154732,20.4398719 C3.47873372,20.7942921 4.93777811,21 6.5,21 C8.06222189,21 9.52126628,20.7942921 10.5845268,20.4398719 C11.516969,20.1290579 12,19.7483867 12,19.5 L12,17.8986992 C10.8484637,18.5960734 8.81514512,19 6.5,19 C4.18485488,19 2.15153634,18.5960734 1,17.8986992 L1,19.5 Z M0,19.5 L0,16.5 C0,14.9704799 2.91143973,14 6.5,14 C10.0885603,14 13,14.9704799 13,16.5 L13,19.5 C13,21.0295201 10.0885603,22 6.5,22 C2.91143973,22 0,21.0295201 0,19.5 Z M6.5,18 C8.06222189,18 9.52126628,17.7942921 10.5845268,17.4398719 C11.516969,17.1290579 12,16.7483867 12,16.5 C12,16.2516133 11.516969,15.8709421 10.5845268,15.5601281 C9.52126628,15.2057079 8.06222189,15 6.5,15 C4.93777811,15 3.47873372,15.2057079 2.4154732,15.5601281 C1.48303101,15.8709421 1,16.2516133 1,16.5 C1,16.7483867 1.48303101,17.1290579 2.4154732,17.4398719 C3.47873372,17.7942921 4.93777811,18 6.5,18 Z M12.6938847,6.19042024 L21.5528058,14.3325837 C21.8465125,14.627212 21.9999997,14.9992915 21.9999997,15.3954436 C22.0002598,15.7915958 21.8467727,16.1641986 21.5678943,16.444174 L20.4526411,17.5661689 C20.1740229,17.8458827 19.8038328,18 19.4102293,18 C19.0163657,18 18.6461755,17.845621 18.3680776,17.5659073 L10.2581218,8.64033598 L7.38218895,11.5329792 C7.0421759,11.8765378 6.44331589,11.8786311 6.09992092,11.5332409 L3.26509141,8.68167814 C2.91233112,8.32634485 2.91155068,7.74807787 3.26327038,7.39248292 L8.38583879,2.24041191 L12.7006486,0.133008157 C13.0942521,-0.082337422 13.543267,-0.0315755238 13.8242265,0.251801465 L15.5695574,2.00779682 C15.7412549,2.18023028 15.8356885,2.40996712 15.8354284,2.65409522 C15.8351682,2.89796165 15.7402143,3.12717517 15.5679966,3.29908531 L12.6938847,6.19042024 Z M14.8005762,2.65265764 L13.1666481,1.00874481 C13.1657048,1.01518788 13.1577333,1.02200101 13.1395126,1.03156162 L8.97614197,3.06500073 L4.03343812,8.03616663 L6.74092799,10.7596381 L10.2907372,7.18920301 L11.2515243,6.22296675 L11.9846688,5.48542894 L14.8005762,2.65265764 Z M10.9982352,7.96785388 L19.0772297,16.8608518 C19.1679037,16.9520526 19.2829782,17 19.4102293,17 C19.5376284,17 19.6529612,16.9519966 19.7434068,16.8611962 L20.8594008,15.7384567 C20.9512614,15.6462348 21.0000863,15.5277282 20.9999997,15.3954436 C20.9999997,15.2629017 20.9506211,15.1449436 20.8761114,15.0688477 L11.9969517,6.90808306 L10.9982352,7.96785388 Z" id="Shape"></path>
        </g>
    </g>
</svg>

<?xml version="1.0" encoding="utf-8"?>
<!-- Generator: Adobe Illustrator 23.0.1, SVG Export Plug-In . SVG Version: 6.00 Build 0)  -->
<svg version="1.1" id="图层_1" xmlns="http://www.w3.org/2000/svg" xmlns:xlink="http://www.w3.org/1999/xlink" x="0px" y="0px"
	 viewBox="0 0 24 24" style="enable-background:new 0 0 24 24;" xml:space="preserve">
<style type="text/css">
	.st0{fill:#AEAEAE;}
</style>
<title>ic_minting_Line</title>
<desc>Created with Sketch.</desc>
<g id="Export">
	<g id="ic_minting_Line" transform="translate(1.000000, 1.000000)">
		<path id="Shape" class="st0" d="M1,19.5c0,0.2,0.5,0.6,1.4,0.9C3.5,20.8,4.9,21,6.5,21s3-0.2,4.1-0.6c0.9-0.3,1.4-0.7,1.4-0.9
			v-1.6C10.8,18.6,8.8,19,6.5,19S2.2,18.6,1,17.9V19.5z M0,19.5v-3C0,15,2.9,14,6.5,14s6.5,1,6.5,2.5v3C13,21,10.1,22,6.5,22
			S0,21,0,19.5z M6.5,18c1.6,0,3-0.2,4.1-0.6c0.9-0.3,1.4-0.7,1.4-0.9s-0.5-0.6-1.4-0.9C9.5,15.2,8.1,15,6.5,15s-3,0.2-4.1,0.6
			C1.5,15.9,1,16.3,1,16.5s0.5,0.6,1.4,0.9C3.5,17.8,4.9,18,6.5,18z M12.7,6.2l8.9,8.1c0.3,0.3,0.4,0.7,0.4,1.1c0,0.4-0.2,0.8-0.4,1
			l-1.1,1.1c-0.3,0.3-0.6,0.4-1,0.4c-0.4,0-0.8-0.2-1-0.4l-8.1-8.9l-2.9,2.9c-0.3,0.3-0.9,0.3-1.3,0L3.3,8.7c-0.4-0.4-0.4-0.9,0-1.3
			l5.1-5.2l4.3-2.1c0.4-0.2,0.8-0.2,1.1,0.1L15.6,2c0.2,0.2,0.3,0.4,0.3,0.6c0,0.2-0.1,0.5-0.3,0.6L12.7,6.2z M14.8,2.7L13.2,1
			c0,0,0,0,0,0L9,3.1L4,8l2.7,2.7l3.5-3.6l1-1L12,5.5L14.8,2.7z M11,8l8.1,8.9c0.1,0.1,0.2,0.1,0.3,0.1c0.1,0,0.2,0,0.3-0.1l1.1-1.1
			c0.1-0.1,0.1-0.2,0.1-0.3c0-0.1,0-0.3-0.1-0.3L12,6.9L11,8z"/>
	</g>
</g>
</svg>
